home/.icons/Gruvbox-Plus-Dark/apps/16/twitch.svg

<svg xmlns="http://www.w3.org/2000/svg" style="isolation:isolate" width="16" height="16" viewBox="0 0 16 16">
   <defs>
      <style id="current-color-scheme" type="text/css">
         .ColorScheme-Text {
            color: #ebdbb2;
         }

         .ColorScheme-Highlight {
            color: #458588;
         }
      </style>
      <linearGradient id="arrongin" x1="0%" x2="0%" y1="0%" y2="100%">
         <stop offset="0%" style="stop-color:#d79921; stop-opacity:1" />
         <stop offset="100%" style="stop-color:#b57614; stop-opacity:1" />
      </linearGradient>
      <linearGradient id="aurora" x1="0%" x2="0%" y1="0%" y2="100%">
         <stop offset="0%" style="stop-color:#83a598; stop-opacity:1" />
         <stop offset="100%" style="stop-color:#b16286; stop-opacity:1" />
      </linearGradient>
      <linearGradient id="fitdance" x1="0%" x2="0%" y1="0%" y2="100%">
         <stop offset="0%" style="stop-color:#8ec07c; stop-opacity:1" />
         <stop offset="100%" style="stop-color:#458588; stop-opacity:1" />
      </linearGradient>
      <linearGradient id="oomox" x1="0%" x2="0%" y1="0%" y2="100%">
         <stop offset="0%" style="stop-color:#458588; stop-opacity:1" />
         <stop offset="100%" style="stop-color:#928374; stop-opacity:1" />
      </linearGradient>
      <linearGradient id="rainblue" x1="0%" x2="0%" y1="0%" y2="100%">
         <stop offset="0%" style="stop-color:#b8bb26; stop-opacity:1" />
         <stop offset="100%" style="stop-color:#076678; stop-opacity:1" />
      </linearGradient>
      <linearGradient id="sunrise" x1="0%" x2="0%" y1="0%" y2="100%">
         <stop offset="0%" style="stop-color: #fe8019; stop-opacity:1" />
         <stop offset="100%" style="stop-color: #fabd2f; stop-opacity:1" />
      </linearGradient>
      <linearGradient id="telinkrin" x1="0%" x2="0%" y1="0%" y2="100%">
         <stop offset="0%" style="stop-color: #83a598; stop-opacity:1" />
         <stop offset="100%" style="stop-color: #83a598; stop-opacity:1" />
      </linearGradient>
      <linearGradient id="60spsycho" x1="0%" x2="0%" y1="0%" y2="100%">
         <stop offset="0%" style="stop-color: #fb4934; stop-opacity:1" />
         <stop offset="25%" style="stop-color: #fabd2f; stop-opacity:1" />
         <stop offset="50%" style="stop-color: #fe8019; stop-opacity:1" />
         <stop offset="100%" style="stop-color: #689d6a; stop-opacity:1" />
      </linearGradient>
      <linearGradient id="90ssummer" x1="0%" x2="0%" y1="0%" y2="100%">
         <stop offset="0%" style="stop-color: #b16286; stop-opacity:1" />
         <stop offset="20%" style="stop-color: #8ec07c; stop-opacity:1" />
         <stop offset="50%" style="stop-color: #fabd2f; stop-opacity:1" />
         <stop offset="100%" style="stop-color: #458588; stop-opacity:1" />
      </linearGradient>
      <linearGradient id="cyberneon" x1="0%" x2="0%" y1="0%" y2="100%">
         <stop offset="0" style="stop-color:#83a598; stop-opacity:1" />
         <stop offset="1" style="stop-color:#b16286; stop-opacity:1" />
      </linearGradient>
   </defs>
   <path style="fill:currentColor" class="ColorScheme-Text"
      d="M 2.6667638,0.99985416 2,3.6669097 v 9.9997083 h 2.6661806 v 1.333528 H 5.9997084 L 7.3332362,13.666618 H 9.3335278 L 14,9.0001458 V 0.99985416 Z M 4.0002916,1.666618 h 9.3329444 v 7.0001459 l -1.66691,1.6669101 H 8 L 5.9997084,12.33309 V 10.333674 H 4.0002916 Z M 6.6664722,3.6669097 V 7.666618 H 8 V 3.6669097 Z m 3.3338198,0 V 7.666618 H 11.33382 V 3.6669097 Z" />
</svg>

<svg width="16" height="16" version="1.1" xmlns="http://www.w3.org/2000/svg">
  <defs>
    <style type="text/css" id="current-color-scheme">.ColorScheme-Text { color:#ebdbb2; } .ColorScheme-Highlight { color:#458588; }</style>
  </defs>
  <path class="ColorScheme-Text" d="m2.667 0.9998-0.6668 2.667v10h2.666v1.334h1.334l1.334-1.334h2l4.666-4.666v-8zm1.334 0.6668h9.333v7l-1.667 1.667h-3.666l-2 1.999v-1.999h-1.999zm2.666 2v4h1.334v-4zm3.334 0v4h1.334v-4z" fill="currentColor"/>
</svg>
